!!!COM: Beethoven
!!!OTL: 13 Variationen uber "Es war einmal ein alter Mann" aus "Das rote Kappchen" von K. Ditters von Dittersdorf
!!!Variation: Variation 1 c
**function	**harm	**kern	**kern
*	*	*clefG2	*clefG2
*	*	*k[f#c#g#]	*k[f#c#g#]
*M2/4	*M2/4	*M2/4	*M2/4
*A:	*A:	*A:	*A:
8D	8Vb	(8G#	16a#
.	.	.	16bJJ)
=50	=50	=50	=50
4D	4vi	8AL	(16b#LL
.	.	.	16cc#
.	.	8f#J	16ee
.	.	.	16dd#JJ
4D	4V7/V	8BL	16cc##LL
.	.	.	16dd#
.	.	8aJ	16ff#
.	.	.	16eeJJ)
=51	=51	=51	=51
4.D	4.V	8eL	(16dd#LL
.	.	.	16ee
.	.	8g#J)	16gg#
.	.	.	16ff#JJ
.	.	8r	16eeLL
.	.	.	16dd#
*	*	*clefF4	*
8D	8Vb	(8GG#	16cc#
.	.	.	16bJJ)
=52	=52	=52	=52
4D	4vi	8AAL	(16b#LL
.	.	.	16cc#
.	.	8F#J	16ee
.	.	.	16dd#JJ
4D	4V7/V	8BBL	16cc##LL
.	.	.	16dd#
.	.	8AJ	16ff#
.	.	.	16eeJJ)
=53	=53	=53	=53
4.D	4.V	8EL	(16dd#LL
.	.	.	16ee
.	.	8G#J)	16gg#
.	.	.	16ff#JJ
.	.	8r	16eeLL
.	.	.	16gg#
*	*	*clefG2	*
8D	8Vb	(8G#	16bb
.	.	.	16bJJ)
=54	=54	=54	=54
4D	4vi	8AL	(16b#LL
.	.	.	16cc#
.	.	8f#J	16ee
.	.	.	16dd#JJ
4D	4V7/V	8BL	16cc##LL
.	.	.	16dd#
.	.	8aJ	16ff#
.	.	.	16eeJJ)
=55	=55	=55	=55
4.D	4.V	8eL	(16dd#LL
.	.	.	16ee
.	.	8g#J)	16gg#
.	.	.	16ff#JJ
.	.	8r	16eeLL
.	.	.	16dd#
*	*	*clefF4	*
8D	8Vb	(8GG#	16cc#
.	.	.	16bJJ)
=56	=56	=56	=56
4D	4vi	8AAL	(16b#LL
.	.	.	16cc#
.	.	8F#J	16ee
.	.	.	16dd#JJ
4D	4V7/V	8BBL	16cc##LL
.	.	.	16dd#
.	.	8AJ	16ff#
.	.	.	16eeJJ)
=57	=57	=57	=57
4D	4V	8EL	(16dd#LL
.	.	.	16ee
.	.	8G#J)	16gg#
.	.	.	16ff#JJ
4D	4V7b/V	(8D#L	16ee#LL
.	.	.	16ff#
.	.	8BJ	16aa
.	.	.	16gg#JJ)
=58	=58	=58	=58
4D	4V	8EL	(16ff##LL
.	.	.	16gg#
.	.	8BJ	16aa#
.	.	.	16bbJJ
4D	4V7/V	8BBL	16bbLL
.	.	.	16aa
.	.	8BJ)	16ff#
.	.	.	16dd#JJ)
=59	=59	=59	=59
2D	2V7/V	2r;	2r;
=60	=60	=60	=60
4.D	4.V	(4.e	8r
.	.	.	(8ee
.	.	.	8eeeL)
*-	*-	*-	*-
